X:1
T:Title
%%score { 1 | 2 }
L:1/8
Q:1/4=100
M:6/8
K:Eb
V:1 treble nm="Grand Piano"
V:2 bass 
V:1
 [EG]2 [FA] [GB]2 [Ac] | [GB]3 [EG]2 [EG] | [GB]2 [FA] [FA]2 [DB] | [EG]6 | [EG]2 [FA] [GB]2 [Ac] | %5
w: W.~J.~Kirkpatrick * * *|||||
 [GB]3 [EG]2 [GB] | [Ge]2 [Gd] [Fd]2 [Ec] | [DB]6 | [DB]2 [Dc] F2 G | A3 A2 A | %10
w: |||||
 [DA]2 [DB] [B,E]2 [B,DF] | [B,EG]6 | [CEG]2 [CEF] [CEF]2 [Ec] | [Ec]3 [EB]2[K:bass] [G,B,E] | %14
w: ||||
 [F,B,D]2[K:treble] [G,B,E] [B,DG]2 [A,DF] | [G,E]6 | [B,EG]2 [B,FA] [EGB]3 | [EBe]2 [EBd] [EAc]3 | %18
w: ||||
 [DF]2 [EG] [DFA]2 [DAc] | [B,GB]2 [B,FA] [B,EG]3 | [B,EG]2 [B,FA] [B,GB]2 [EAc] | %21
w: |||
 [EGB]3 .[B,EG]3 | [B,GB]2 [B,GB] [Be]2 [Bd] | [Ac]6 | [GB]2 [EG] [Ge]2 [Ac] | %25
w: ||||
 [GB]2 [EG] [_D=EB]2 [CFA] | [EG]3 [DF]3 | [B,E]6 |] %28
w: |||
V:2
 [E,B,]2 [E,B,] [E,E]2 [E,E] | [E,E]3 [E,B,]2 [E,B,] | [B,,B,]2 [B,,B,] [B,,B,]2 [B,,B,] | %3
 [E,B,]6 | [E,B,]2 [E,B,] [E,E]2 [E,E] | [E,E]3 [E,B,]2 [E,B,] | [E,B,]2 [E,B,] [F,B,]2 [F,=A,] | %7
 [B,,B,]6 | [B,,F,]2 [B,,F,] [A,B,D]2 [G,B,E] | [F,B,D]3 [F,B,D]2 [F,B,D] | %10
 [B,,B,]2 [B,,A,] G,2 F, | E,6 | A,,2 A,, A,,2 [A,,A,] | [B,,G,]3 [B,,G,]2 B,, | %14
 B,,2 B,, B,,2 B,, | E,6 | E,2 E, E,3 | G,2 G, A,3 | B,2 B, B,2 B, | B,,2 B,, E,3 | E,2 E, E,2 E, | %21
 E,3 .E,3 | E,2 E, [G,B,]2 [G,E] | [A,E]6 | [E,E]2 [E,B,] [E,B,]2 [E,E] | %25
 [E,E]2 [E,B,] [G,,G,]2 [A,,A,] | [B,,B,]3 [B,,A,]3 | [E,G,]6 |] %28

